Sources/FrostedUI/Resources/Icons.xcassets/listNumber12.imageset/list-number-12.svg

<svg width="12" height="12" viewBox="0 0 12 12" fill="none" xmlns="http://www.w3.org/2000/svg" data-fui-icon="true">
  <path
    d="M2.80469 6.37524C3.55701 6.37536 4.35537 6.92486 4.35547 7.81957C4.35539 8.29704 4.12505 8.64853 3.88281 8.88793C4.23357 8.95071 4.5 9.25642 4.5 9.62524C4.49987 10.0393 4.16413 10.3752 3.75 10.3752H1.875C1.46087 10.3752 1.12513 10.0393 1.125 9.62524C1.125 9.10999 1.4342 8.7687 1.66797 8.57543C1.89389 8.3887 2.1833 8.23261 2.37109 8.12621C2.54713 8.02647 2.66928 7.95079 2.75586 7.88403C2.71931 7.8932 2.67127 7.91086 2.61523 7.9436C2.57722 7.96582 2.54537 7.98753 2.52539 8.00317C2.51577 8.01071 2.51003 8.01687 2.50781 8.01879C2.50833 8.01832 2.50875 8.01688 2.50977 8.01586C2.20816 8.29552 1.73677 8.28046 1.4541 7.98071C1.17016 7.6793 1.18412 7.20422 1.48535 6.92016L1.71484 7.16332C1.51272 6.94867 1.489 6.92322 1.48633 6.92016V6.91918H1.4873L1.48828 6.91723C1.48931 6.91626 1.49095 6.91541 1.49219 6.9143C1.49467 6.91201 1.49775 6.90941 1.50098 6.90649C1.50753 6.90056 1.51583 6.89329 1.52539 6.885C1.54466 6.86831 1.57047 6.84684 1.60156 6.8225C1.66314 6.77432 1.74998 6.71152 1.85742 6.64867C2.06242 6.52883 2.39809 6.37524 2.80469 6.37524ZM10.125 7.62524C10.5392 7.62524 10.875 7.96102 10.875 8.37524C10.8749 8.78934 10.5391 9.12524 10.125 9.12524H5.875C5.46087 9.12524 5.12513 8.78934 5.125 8.37524C5.125 7.96102 5.46079 7.62524 5.875 7.62524H10.125ZM2.69531 1.76098C2.92439 1.60073 3.2237 1.58109 3.47168 1.7102C3.71948 1.83942 3.875 2.09574 3.875 2.37524V4.87524C3.87487 5.28934 3.53913 5.62524 3.125 5.62524C2.71087 5.62524 2.37513 5.28934 2.375 4.87524V3.81469L2.30469 3.86449C1.96543 4.10173 1.49824 4.01902 1.26074 3.67992C1.0234 3.34064 1.10613 2.87349 1.44531 2.63598L2.69531 1.76098ZM10.125 2.87524C10.5392 2.87524 10.875 3.21102 10.875 3.62524C10.8749 4.03934 10.5391 4.37524 10.125 4.37524H5.875C5.46087 4.37524 5.12513 4.03934 5.125 3.62524C5.125 3.21102 5.46079 2.87524 5.875 2.87524H10.125Z"
    fill="currentColor"
  />
</svg>

<svg xmlns="http://www.w3.org/2000/svg" width="12" height="12" fill="none" data-fui-icon="true" viewBox="0 0 12 12"><path fill="currentColor" d="M2.805 6.375c.752 0 1.55.55 1.55 1.445 0 .477-.23.829-.472 1.068a.75.75 0 0 1-.133 1.487H1.875a.75.75 0 0 1-.75-.75c0-.515.31-.856.543-1.05.226-.186.515-.342.703-.449.176-.1.298-.175.385-.242a.5.5 0 0 0-.14.06 1 1 0 0 0-.09.06q-.015.011-.018.015 0 0 .002-.003A.75.75 0 0 1 1.485 6.92l.23.243-.229-.243h.001l.001-.003.004-.003.009-.008a2 2 0 0 1 .1-.083c.062-.049.149-.111.256-.174a1.9 1.9 0 0 1 .948-.274m7.32 1.25a.75.75 0 0 1 0 1.5h-4.25a.75.75 0 0 1 0-1.5zm-7.43-5.864a.75.75 0 0 1 1.18.614v2.5a.75.75 0 0 1-1.5 0v-1.06l-.07.05a.75.75 0 0 1-.86-1.229zm7.43 1.114a.75.75 0 0 1 0 1.5h-4.25a.75.75 0 0 1 0-1.5z"/></svg>
